X:18620
T:Westport Chorus, The
R:reel
H:See also "O'Rourke's", #245
D:Irish Dance Music (ed. Reg Hall)
D:Frank Quinn & P. Crowley 1926
Z:id:hn-reel-331
M:C|
K:D
AG|:(3FED AD BDAG|FDAF G2AG|FDAD BA~A2|1 (3Bcd cA G2AG:|2 (3Bcd cA G2AB||
|:(3cBA BG A2AB|(3cBA BG Ad~d2|cABG A2~A2|1 BdcA G2AB:|2 BdcA G2||


